public/weather-icons/thunder.svg

<svg width="80" height="71" viewBox="0 0 80 71" fill="none" xmlns="http://www.w3.org/2000/svg">
<g clip-path="url(#clip0_3430_1397)">
<path d="M37.1 68.3999C39 66.3599 44.93 59.9999 44.93 59.9999L48.93 55.7099C49.1637 55.5291 49.3294 55.2746 49.4002 54.9878C49.4709 54.701 49.4427 54.3986 49.32 54.1299C49.1818 53.8677 48.9606 53.6588 48.691 53.5357C48.4214 53.4127 48.1186 53.3825 47.83 53.4499L46.45 53.5499L46.78 52.8899L49.37 47.8899C49.95 46.7699 49.43 45.8899 48.19 45.8899C45.19 45.8899 42.19 45.8899 39.19 45.8899C38.8893 45.8668 38.5891 45.9408 38.3335 46.101C38.0779 46.2612 37.8804 46.4991 37.77 46.7799C36.11 50.1999 34.44 53.6099 32.77 57.0299C32.6103 57.2288 32.5163 57.4725 32.5012 57.7272C32.4861 57.982 32.5505 58.2351 32.6857 58.4515C32.8208 58.668 33.0199 58.837 33.2554 58.9353C33.4909 59.0335 33.7511 59.0561 34 58.9999H37.6C37.41 59.6099 37.25 60.1799 37.04 60.7199L36 63.9999C35.61 65.2299 35.19 66.3399 34.91 67.4899C34.8791 67.6979 34.8935 67.9101 34.9522 68.112C35.0108 68.314 35.1125 68.5008 35.25 68.6599C35.6059 68.8878 36.0318 68.9801 36.45 68.9199C36.65 68.9099 36.9 68.6199 37.1 68.3999Z" fill="#F5B952"/>
<path d="M57.8001 39.6899H9.08012C7.94973 39.6221 6.85358 39.2763 5.8889 38.6832C4.92423 38.0901 4.12088 37.268 3.55012 36.2899C2.64976 34.8722 2.16403 33.2309 2.14788 31.5515C2.13172 29.8722 2.58578 28.2218 3.45871 26.787C4.33163 25.3523 5.58859 24.1904 7.08743 23.4328C8.58627 22.6751 10.2672 22.352 11.9401 22.4999C13.4001 22.5799 13.7101 22.0299 13.9401 20.7999C14.6495 16.138 16.8038 11.8162 20.0994 8.44342C23.395 5.07065 27.6659 2.81697 32.3101 1.99994H32.4201C37.6191 1.27289 42.9073 2.41771 47.3401 5.22994C47.7801 5.49994 48.2101 5.79994 48.6501 6.11994C51.0964 8.03034 53.1363 10.4103 54.6501 13.1199L55.3601 14.3299" fill="#F9FCFE"/>
<path d="M34.5801 27.2198C34.8535 25.2222 35.74 23.3587 37.1174 21.8864C38.4948 20.4141 40.2952 19.4055 42.2701 18.9998C42.8979 18.8964 43.5338 18.8495 44.1701 18.8598C46.6642 18.8535 49.0671 19.7975 50.8901 21.4998C52.1821 22.7216 53.1069 24.2802 53.5601 25.9998" fill="#F9FCFE"/>
<path d="M47.7397 19.4498C50.5597 15.0398 57.0397 13.4498 62.2197 14.4998C64.5167 14.9326 66.6338 16.0366 68.3034 17.6724C69.973 19.3081 71.1201 21.4022 71.5997 23.6898C72.2597 26.5898 72.4697 27.6898 74.6797 29.2498C77.8197 31.4598 77.5997 36.3998 75.0597 38.7398C74.376 39.3212 73.5166 39.6558 72.6197 39.6898H55.7697" fill="#F9FCFE"/>
<path d="M70.5 39.7202H8.99991C7.86355 39.6537 6.76053 39.3112 5.78646 38.7222C4.81238 38.1332 3.99663 37.3156 3.40991 36.3402C2.56145 35.0056 2.07961 33.4711 2.0129 31.8911C1.94618 30.3111 2.29696 28.7415 3.02991 27.3402C3.89708 25.7859 5.19423 24.5148 6.76576 23.6794C8.3373 22.844 10.1165 22.4797 11.8899 22.6302C13.3699 22.7102 13.6799 22.1702 13.8899 20.9402C14.641 16.2711 16.8379 11.9553 20.1711 8.60062C23.5042 5.24592 27.8058 3.02133 32.4699 2.24017H32.5899C37.8304 1.51069 43.161 2.63554 47.6599 5.42017C48.0999 5.6935 48.5399 5.9935 48.9799 6.32017C51.4574 8.19253 53.5349 10.5421 55.0899 13.2302L55.7999 14.4302" stroke="#F9FCFE" stroke-width="4" stroke-miterlimit="10"/>
<path d="M34.77 27.3102C35.0508 25.3048 35.9504 23.437 37.3432 21.9671C38.736 20.4972 40.5527 19.4985 42.54 19.1102C43.1755 19.0164 43.818 18.9796 44.46 19.0002C46.9712 18.9945 49.3935 19.9292 51.25 21.6202C52.542 22.8414 53.4727 24.3949 53.94 26.1102" stroke="#F9FCFE" stroke-width="4" stroke-miterlimit="10"/>
<path d="M48.0601 19.5697C50.9101 15.1897 57.4601 13.5697 62.6901 14.6497C64.9965 15.0673 67.1274 16.1595 68.813 17.7882C70.4987 19.4169 71.6635 21.5089 72.1601 23.7997C72.8301 26.6897 73.0401 27.7997 75.2701 29.3297C78.4501 31.5297 78.2701 36.4497 75.6601 38.7697C74.9684 39.3574 74.0973 39.6924 73.1901 39.7197H70.0001" stroke="#F9FCFE" stroke-width="4" stroke-miterlimit="10"/>
</g>
<defs>
<clipPath id="clip0_3430_1397">
<rect width="79.62" height="70.44" fill="white"/>
</clipPath>
</defs>
</svg>

<svg xmlns="http://www.w3.org/2000/svg" viewBox="0 0 79.62 70.44"><defs><style>.cls-1{fill:#f5b952;}.cls-2{fill:#cae3f6;}.cls-3,.cls-4{fill:none;stroke-miterlimit:10;}.cls-3{stroke:#000;stroke-width:3px;}.cls-4{stroke:#231f20;stroke-width:4px;}</style></defs><title>thunderAsset 171colored</title><g id="Layer_2" data-name="Layer 2"><g id="Layer_1-2" data-name="Layer 1"><path class="cls-1" d="M37.1,68.4C39,66.36,44.93,60,44.93,60h0l4-4.29a1.31,1.31,0,0,0,.39-1.58,1.34,1.34,0,0,0-1.49-.68l-1.38.1.33-.66,2.59-5c.58-1.12.06-2-1.18-2-3,0-6,0-9,0a1.41,1.41,0,0,0-1.42.89c-1.66,3.42-3.33,6.83-5,10.25A1.23,1.23,0,0,0,34,59h3.6c-.19.61-.35,1.18-.56,1.72L36,64c-.39,1.23-.81,2.34-1.09,3.49a1.46,1.46,0,0,0,.34,1.17,1.76,1.76,0,0,0,1.2.26C36.65,68.91,36.9,68.62,37.1,68.4Z"/><path class="cls-2" d="M57.8,39.69H9.08a6.88,6.88,0,0,1-5.53-3.4A9,9,0,0,1,11.94,22.5c1.46.08,1.77-.47,2-1.7A22.53,22.53,0,0,1,32.31,2h.11A22.13,22.13,0,0,1,47.34,5.23c.44.27.87.57,1.31.89a23.3,23.3,0,0,1,6,7l.71,1.21"/><path class="cls-2" d="M34.58,27.22A9.74,9.74,0,0,1,42.27,19a10.64,10.64,0,0,1,1.9-.14,9.81,9.81,0,0,1,6.72,2.64A9.54,9.54,0,0,1,53.56,26"/><path class="cls-2" d="M47.74,19.45c2.82-4.41,9.3-6,14.48-4.95a11.82,11.82,0,0,1,9.38,9.19c.66,2.9.87,4,3.08,5.56,3.14,2.21,2.92,7.15.38,9.49a4,4,0,0,1-2.44.95H55.77"/><line class="cls-2" x1="61.21" y1="39.69" x2="66.26" y2="39.69"/><path class="cls-3" d="M37.1,68.4C39,66.36,44.93,60,44.93,60h0l4-4.29a1.31,1.31,0,0,0,.39-1.58,1.34,1.34,0,0,0-1.49-.68l-1.38.1.33-.66,2.59-5c.58-1.12.06-2-1.18-2-3,0-6,0-9,0a1.41,1.41,0,0,0-1.42.89c-1.66,3.42-3.33,6.83-5,10.25A1.23,1.23,0,0,0,34,59h3.6c-.19.61-.35,1.18-.56,1.72L36,64c-.39,1.23-.81,2.34-1.09,3.49a1.46,1.46,0,0,0,.34,1.17,1.76,1.76,0,0,0,1.2.26C36.65,68.91,36.9,68.62,37.1,68.4Z"/><path class="cls-4" d="M58.22,39.72H9a7,7,0,0,1-5.59-3.38,9,9,0,0,1-.38-9,9.25,9.25,0,0,1,8.86-4.71c1.48.08,1.79-.46,2-1.69A22.6,22.6,0,0,1,32.47,2.24h.12A22.69,22.69,0,0,1,47.66,5.42q.66.41,1.32.9a23.26,23.26,0,0,1,6.11,6.91l.71,1.2"/><path class="cls-4" d="M34.77,27.31a9.73,9.73,0,0,1,7.77-8.2A10.79,10.79,0,0,1,44.46,19a10.05,10.05,0,0,1,6.79,2.62,9.68,9.68,0,0,1,2.69,4.49"/><path class="cls-4" d="M48.06,19.57c2.85-4.38,9.4-6,14.63-4.92a11.85,11.85,0,0,1,9.47,9.15c.67,2.89.88,4,3.11,5.53,3.18,2.2,3,7.12.39,9.44a4,4,0,0,1-2.47.95H70"/><line class="cls-4" x1="61.67" y1="39.72" x2="66.77" y2="39.72"/></g></g></svg>
